X:1
T:No8. Vater, in deine Hände befehle ich meinen Geist
L:1/8
Q:1/4=50
M:3/4
K:Eb
V:1 bass nm="Piano" snm="Pno."
V:1
"^Largo" z2 | !wedge!E,,2 !wedge!E,2 z2 | !wedge!D,2 !wedge!E,2 z2 | !wedge!C,2 !wedge!E,2 z2 | %4
 !wedge!D,2 !wedge!E,2 z2 | (A,2 G,) z z2 | (A,2 !wedge!G,) z z2 | A,2 B,2 B,,2 | E,2 E,,2 z2 | %9
 z6 | z6 | z6 | z2 z2 z E, | _D3 B,CA, | G,>A, B, G,E,_D, | (C,2 C,)_D,C,B,, | %16
!p! A,,>G,, F,,2 z F, | E3 C_DB, | =A,>B, CA,F,E, | (=D,2 D,)E,D,C, |!p! B,,>=A,, G,,2 z2 | %21
!f! G,G,G,G,G,G, | G,2 C,2 z2 |!f! F,F,F,F,F,F, | F,2 B,,B,,B,,B,, | B,,B,,B,,B,,!p!B,,B,, | %26
 B,,B,,B,,B,,!p!B,,B,, | z G, z =A, z B, | E,2 F,2 z2 |!f! !wedge!B,,2 !wedge!B,2 z2 | %30
!p! E,2 F,2 z2 | z2!p! =A,2 z2 | z2 ^F,2 G,2 | E,2 z4 | z2 z z z (=E, | F,) z z2!p! F,,2 | %36
 B,,B,,B,,B,,B,,B,, | B,,B,,B,,B,,B,,B,, | B,,2 z2 z2 | z6 | z6 |1 z2 z2 :|2 z2 z2 z!f! B,, || %43
 _A,3 F,G,E, | D,>E, F,D,E,G, | B,B,, B,,B,,B,,B,, | B,,B,,B,,B,,B,,B,, | B,,B,,B,,B,,B,,B,, | %48
 _C,C,C,C,C,C, | B,,2 z2 z2 |!f! !wedge!E,,2 !wedge!E,2 z2 | !wedge!D,2 !wedge!E,2 z2 | %52
 !wedge!A,,2 !wedge!G,,2 z2 | !wedge!D,2 !wedge!E,2 z2 | (A,2 G,) z z2 | (A,2 G,) z z2 | %56
!p! A, z B, z B,, z | !wedge!E,!wedge!E,!wedge!E,!wedge!E,!wedge!E,!wedge!E, | E,E,E,E,E,E, | %59
 E,E,E,E,E,E, | E,E,E,E,E,E, | =E,E,E,E,E,E, | F,F,F,F,D,D, | E,E,E,E,C,C, | B,,2 z2 z2 | z6 | %66
 z2 z2 z E, | C3!p! B,A,G, |!f! !wedge!A,2 !wedge!G,2 z2 | !wedge!D,2 !wedge!E,2 z!p! E, | %70
 A,3 (F,/G,/) A,=A, | B,2 B,,2 z B, | _C3 A,/B,/ C=C | _D3 B,/C/ D=D | E3 =DCE, | %75
!f! .B,.B,.B,.B,.B,.B, | B,6 | z B,B,B,B,B, | =A,6 | z =A,A,A,A,A, | _A,6 | z A,A,A,A,A, | %82
!f! G,2 E z z2 |!p! A,,2 B,,2 z2 | z2 D,2 z2 | z2 (=B,,2 C,2) | A,,2 z2 z2 | z2 z2 z!f! (=A,, | %88
 B,,2) z2!p! (B,,2 | E,,) z z2 z2 | z6 | z6 | z6 |!p! EEEEEE | EEEEEE | EEEEEE | EEEEEE | %97
 E2 z2 z2 |"^pizz." E,2 z2 z2 | E,2 z4 | z6 | z6 | z6 | z6 |] %104

